!!!!SEGMENT: Arc2001-Estote_fortes.krn
!!!id: Arc2001
!!!AGN: Motet
!!!voices: 6
!!!COM: Jacques Arcadelt
!!!OTL: Estote fortes
**kern	**kern	**kern	**kern	**kern	**kern
*part6	*part5	*part4	*part3	*part2	*part1
*staff6	*staff5	*staff4	*staff3	*staff2	*staff1
*I"Bassus II	*I"Bassus I	*I"Tenor II	*I"Tenor I	*I"Altus	*I"Superius
*I'B. II	*I'B. I	*I'T. II	*I'T. I	*I'A	*I'S
*clefF4	*clefF4	*clefGv2	*clefGv2	*clefG2	*clefG2
*k[]	*k[]	*k[]	*k[]	*k[]	*k[]
*C:	*C:	*C:	*C:	*C:	*C:
*M2/1	*M2/1	*M2/1	*M2/1	*M2/1	*M2/1
*met(C|)	*met(C|)	*met(C|)	*met(C|)	*met(C|)	*met(C|)
!!section: Prima pars: Estote fortes
!!!OMD: Prima pars: Estote fortes
=1	=1	=1	=1	=1	=1
0r	0r	0r	0r	1c	1r
.	.	.	.	[1g	1g
=2	=2	=2	=2	=2	=2
0r	0r	0r	0r	2g]	1.dd
.	.	.	.	2g	.
.	.	.	.	1f	.
.	.	.	.	.	2dd
=3	=3	=3	=3	=3	=3
0r	0r	1r	1c	2e	1cc
.	.	.	.	2e	.
.	.	1G	[1g	1d	[1b
=4	=4	=4	=4	=4	=4
0r	0r	1.d	2g]	1G	2b]
.	.	.	2g	.	4a
.	.	.	.	.	4g
.	.	.	1f	1r	[1a
.	.	2d	.	.	.
=5	=5	=5	=5	=5	=5
0r	1C	1c	1.e	2r	2a]
.	.	.	.	1G	2.g
.	[1G	[1B	.	.	.
.	.	.	.	.	4a
.	.	.	4d	2G	[2b
.	.	.	4c	.	.
=6	=6	=6	=6	=6	=6
0r	2G]	2B]	1B	2.d	4b]
.	.	.	.	.	4cc
.	2G	4A	.	.	4dd
.	.	4G	.	4e	4b
.	1F	1A	2r	4f	2cc
.	.	.	.	4g	.
.	.	.	2A	4a	2dd
.	.	.	.	4f	.
=7	=7	=7	=7	=7	=7
0C	2E	0G	2c	2g	0ee
.	2C	.	2c	2.e	.
.	2.G	.	2c	.	.
.	.	.	.	4f	.
.	.	.	2G	[2g	.
.	4A	.	.	.	.
=8	=8	=8	=8	=8	=8
1.G	2B	0r	2r	2g]	0dd
.	1c	.	1G	4f	.
.	.	.	.	4e	.
.	.	.	.	2.d	.
2G	2B	.	[2d	.	.
.	.	.	.	4e	.
=9	=9	=9	=9	=9	=9
1F	1A	1r	2d]	2f	0r
.	.	.	2d	2d	.
2E	1G	2r	1c	1e	.
2C	.	[2G	.	.	.
=10	=10	=10	=10	=10	=10
2.G	2r	2G]	1B	1d	0r
.	2.G	1g	.	.	.
4A	.	.	.	.	.
2B	.	.	2r	1G	.
.	4F	.	.	.	.
[2c	2E	2g	2G	.	.
=11	=11	=11	=11	=11	=11
2c]	1D	1f	2A	1d	0r
2B	.	.	2F	.	.
2c	2.C	[1e	2A	2r	.
[2C	.	.	2G	2c	.
.	4D	.	.	.	.
=12	=12	=12	=12	=12	=12
4C]	4E	1e]	2r	1.g	2r
4D	4F	.	.	.	.
4E	2G	.	2.G	.	1g
4F	.	.	.	.	.
1G	2r	1d	.	.	.
.	.	.	4A	.	.
.	2G	.	4B	2g	[2dd
.	.	.	4c	.	.
=13	=13	=13	=13	=13	=13
1D	2A	2r	2d	1f	2dd]
.	2F	2.A	4A	.	2dd
.	.	.	4B	.	.
2r	2A	.	4c	1e	1cc
.	.	4B	4d	.	.
2C	[2G	4c	[2e	.	.
.	.	4d	.	.	.
=14	=14	=14	=14	=14	=14
1.G	4G]	4e	2e]	1r	2b
.	4A	4f	.	.	.
.	4B	2.g	4d	.	4g
.	4c	.	4c	.	4a
.	2d	.	1B	2r	4b
.	.	4f	.	.	4cc
2G	2G	4d	.	2d	[2dd
.	.	4e	.	.	.
=15	=15	=15	=15	=15	=15
2.D	2.F	4f	1A	2d	2dd]
.	.	4g	.	.	.
.	.	2a	.	2d	4cc
4E	4G	.	.	.	4b
2F	2A	2f	2r	2.c	2a
2C	[2G	2g	[2e	.	[2cc
.	.	.	.	8BL	.
.	.	.	.	8AJ	.
=16	=16	=16	=16	=16	=16
1E	2G]	2r	2e]	1G	4cc]
.	.	.	.	.	4b
.	2C	2e	2c	.	4g
.	.	.	.	.	4a
1D	1F	1f	1d	2r	2b
.	.	.	.	2A	[2a
=17	=17	=17	=17	=17	=17
1C	1E	2g	1G	2c	4a]
.	.	.	.	.	4g
.	.	2e	.	2c	1g
1D	1D	2f	1d	1A	.
.	.	[2d	.	.	2f#i
=18	=18	=18	=18	=18	=18
[0G	2r	4d]	[0B	0G	0g
.	.	4c	.	.	.
.	1d	4B	.	.	.
.	.	4A	.	.	.
.	.	1G	.	.	.
.	2d	.	.	.	.
=19	=19	=19	=19	=19	=19
0G]	2e	0r	0B]	1.g	2r
.	1d	.	.	.	1dd
.	2B	.	.	2g	2dd
=20	=20	=20	=20	=20	=20
0r	2c	0r	2r	2e	2ee
.	2d	.	1d	2f	1dd
.	2G	.	.	1g	.
.	2G	.	2d	.	2b
=21	=21	=21	=21	=21	=21
0r	2c	2r	2e	2a	2cc
.	2B	1d	1d	2.b	2.dd
.	1G	.	.	.	.
.	.	.	.	4a	4g
.	.	2d	2B	[2g	2b
=22	=22	=22	=22	=22	=22
0r	1r	2e	2c	2g]	1a
.	.	1d	2d	2f#i	.
.	2.d	.	1G	1g	2g
.	.	2B	.	.	2dd
.	4d	.	.	.	.
=23	=23	=23	=23	=23	=23
2r	2e	2c	1.g	0r	2cc
1G	1d	2d	.	.	1b
.	.	1G	.	.	.
2G	2B	.	2e	.	2b
=24	=24	=24	=24	=24	=24
2A	2c	1r	2f	2r	2a
1G	2d	.	2.d	1g	2b
.	2G	2r	.	.	1b
.	.	.	4d	.	.
2E	2B	2g	2e	2g	.
=25	=25	=25	=25	=25	=25
2F	2A	2f	2d	2a	2r
2G	2B	2d	2B	1g	2dd
2.C	1G	2r	1c	.	2ee
.	.	2G	.	2e	2cc
4E	.	.	.	.	.
=26	=26	=26	=26	=26	=26
2D	0r	2A	2d	2f	2ff
2C	.	2c	2G	2.g	2ee
1r	.	2G	2B	.	2dd
.	.	.	.	4f	.
.	.	[2g	2c	2e	[2cc
=27	=27	=27	=27	=27	=27
1r	2r	4g]	2G	1d	2cc]
.	.	4f	.	.	.
.	1G	2d	2g	.	2b
2.C	.	1e	2g	1c	[1cc
.	2G	.	2g	.	.
4C	.	.	.	.	.
=28	=28	=28	=28	=28	=28
2F	2A	2c	2f	2r	1cc]
2C	1G	2.e	2g	2g	.
2r	.	.	1e	2g	1r
.	.	4d	.	.	.
2G	2E	[2c	.	2g	.
=29	=29	=29	=29	=29	=29
2A	2F	2c]	1d	2f	0r
1G	2G	2B	.	2d	.
.	2C	1c	1g	1e	.
2E	2G	.	.	.	.
=30	=30	=30	=30	=30	=30
2F	2A	2r	2f	1d	2r
2G	2B	2g	2d	.	2dd
2C	2c	2g	1g	2r	2ee
2G	2C	2g	.	2c	2ee
=31	=31	=31	=31	=31	=31
2A	2F	2c	2r	2c	2ff
2B	2G	1g	2d	2B	2dd
2c	2C	.	2g	1G	1ee
2C	2c	2e	2g	.	.
=32	=32	=32	=32	=32	=32
2D	2A	2f	2f	2r	2dd
2E	2G	2g	2e	2G	2.cc
2F	2r	2f	1d	2A	.
.	.	.	.	.	8bL
.	.	.	.	.	8aJ
2G	[2G	2d	.	2B	2b
=33	=33	=33	=33	=33	=33
1C	2G]	2.e	1c	2G	2.cc
.	2E	.	.	2g	.
.	.	4d	.	.	4b
1r	2F	2c	1r	2f	2a
.	2G	2B	.	2d	[2g
=34	=34	=34	=34	=34	=34
2r	1A	2c	2r	0r	2g]
2F	.	2c	2A	.	2f#i
2F	1G	2d	2B	.	1g
2E	.	2c	2G	.	.
=35	=35	=35	=35	=35	=35
2F	0r	2d	2A	0r	0r
2G	.	2d	2B	.	.
2C	.	2e	2c	.	.
[2F	.	2c	[2A	.	.
=36	=36	=36	=36	=36	=36
2F]	2r	2d	4A]	0r	0r
.	.	.	4G	.	.
2E	2G	2e	1c	.	.
2D	2A	1f	.	.	.
2D	2F	.	2B	.	.
=37	=37	=37	=37	=37	=37
1C	2G	1e	1c	2r	2r
.	2c	.	.	2e	2g
1r	2c	1r	1r	2e	2g
.	2B	.	.	2d	2g
=38	=38	=38	=38	=38	=38
0r	2c	0r	0r	2e	2a
.	2d	.	.	2f	2a
.	2G	.	.	2d	2b
.	[2c	.	.	[2e	[2g
=39	=39	=39	=39	=39	=39
0r	4c]	2r	0r	2e]	2g]
.	4B	.	.	.	.
.	2A	2c	.	2f	2a
.	2G	2d	.	2g	2b
.	[2F	[2f	.	[2a	[2cc
=40	=40	=40	=40	=40	=40
0r	2F]	2f]	1r	2a]	2cc]
.	2G	2d	.	1g	2b
.	1D	2.d	2r	.	1a
.	.	.	[2d	2f#i	.
.	.	4c	.	.	.
=41	=41	=41	=41	=41	=41
2r	0G	1B	2d]	1.g	0b
2G	.	.	2d	.	.
2G	.	2r	2.B	.	.
2E	.	2G	.	2g	.
.	.	.	4c	.	.
=42	=42	=42	=42	=42	=42
2F	2r	2A	1d	2f	1r
2G	1G	2B	.	2d	.
2C	.	1c	2e	2r	2r
[2F	2A	.	4f	[2a	2cc
.	.	.	4e	.	.
=43	=43	=43	=43	=43	=43
2F]	2F	2A	4d	2a]	2dd
.	.	.	4c	.	.
2E	2G	2c	1c	2g	2ee
2D	2A	1d	.	2f	1ff
2D	2F	.	2B	2d	.
=44	=44	=44	=44	=44	=44
0C	2r	1G	1c	1e	1ee
.	1G	.	.	.	.
.	.	2.c	1G	2r	2r
.	[2c	.	.	2e	2g
.	.	4B	.	.	.
=45	=45	=45	=45	=45	=45
1r	2c]	2A	2r	2f	2a
.	2B	2G	2d	2g	2b
2r	1A	2r	2.e	1a	1cc
[2c	.	[2e	.	.	.
.	.	.	4f	.	.
=46	=46	=46	=46	=46	=46
2c]	1G	2e]	1g	2r	1r
2B	.	2d	.	1g	.
1A	1r	2e	1c	.	2r
.	.	2f	.	2f	[2cc
=47	=47	=47	=47	=47	=47
2G	0r	1g	2r	2e	2cc]
1G	.	.	2d	2.d	2b
.	.	2r	2e	.	1a
.	.	.	.	4c	.
[2F	.	2c	2f	2A	.
=48	=48	=48	=48	=48	=48
2F]	2r	2d	1g	2B	2g
2E	1c	2e	.	2G	2g
1D	.	1f	2r	1d	2a
.	2B	.	2d	.	2b
=49	=49	=49	=49	=49	=49
2C	1A	1r	2.e	2r	2.cc
1c	.	.	.	2.e	.
.	.	.	4f	.	4dd
.	2G	2r	1g	.	2ee
.	.	.	.	4d	.
2B	2G	2d	.	[2g	[2dd
=50	=50	=50	=50	=50	=50
1A	2c	2e	1r	2g]	4dd]
.	.	.	.	.	4cc
.	2A	2f	.	2f	1cc
1G	1B	1d	2r	[1g	.
.	.	.	2d	.	2b
=51	=51	=51	=51	=51	=51
0C	1G	2.c	2.e	1g]	1cc
.	.	8BL	4d	.	.
.	.	8AJ	.	.	.
.	2r	1G	2.c	2r	2r
.	[2c	.	.	2e	2g
.	.	.	4B	.	.
=52	=52	=52	=52	=52	=52
1r	2c]	2r	2A	2f	2a
.	2B	2d	2G	2g	2b
2r	1A	2.e	2r	1a	1cc
[2c	.	.	[2e	.	.
.	.	4f	.	.	.
=53	=53	=53	=53	=53	=53
2c]	1G	1g	2e]	2r	1r
2B	.	.	2d	1g	.
1A	1r	1c	2e	.	2r
.	.	.	2f	2f	[2cc
=54	=54	=54	=54	=54	=54
2G	0r	2r	1g	2e	2cc]
1G	.	2d	.	2.d	2b
.	.	2e	2r	.	1a
.	.	.	.	4c	.
[2F	.	2f	2c	2A	.
=55	=55	=55	=55	=55	=55
2F]	2r	1g	2d	2B	2g
2E	1c	.	2e	2G	2g
1D	.	2r	1f	1d	2a
.	2B	2d	.	.	2b
=56	=56	=56	=56	=56	=56
2C	1A	2.e	1r	2r	2.cc
1c	.	.	.	2.e	.
.	.	4f	.	.	4dd
.	2G	1g	2r	.	2ee
.	.	.	.	4d	.
2B	2G	.	2d	[2g	[2dd
=57	=57	=57	=57	=57	=57
1A	2c	1r	2e	2g]	4dd]
.	.	.	.	.	4cc
.	2A	.	2f	2f#i	1cc
1G	1B	2r	1d	1g	.
.	.	[2G	.	.	2b
=58	=58	=58	=58	=58	=58
2.C	2r	2G]	[0cl	2.e	[0ccl
.	1G	2.c	.	.	.
4D	.	.	.	4f	.
2E	.	.	.	2g	.
.	.	4B	.	.	.
[2F	2F	4A	.	2a	.
.	.	4B	.	.	.
=59	=59	=59	=59	=59	=59
2F]	1G	4c	0c_	2a	0cc_
.	.	4d	.	.	.
2E	.	2e	.	1g	.
1F	1A	2c	.	.	.
.	.	[2f	.	2f	.
=60	=60	=60	=60	=60	=60
[0Cl	[0Gl	2f]	0c_	[0gl	0cc_
.	.	4e	.	.	.
.	.	4d	.	.	.
.	.	[1el	.	.	.
=61	=61	=61	=61	=61	=61
00C]	00G]	00e]	00c]	00g]	00cc]
==	==	==	==	==	==
*-	*-	*-	*-	*-	*-
!!!system-decoration: [*]
!!!RDF**kern: i = editorial accidental
!!!RDF**kern: l = terminal long
!!!ENC: Benjamin Ory
!!!END: 2024/12/15
!!!EED: Benjamin Ory
!!!EEV: 2025/02/18
!!!YEC: Copyright 2025 Benjamin Ory, All Rights Reserved
!!!ONB: Translated from MusicXML on 2025/02/18